!!!COA: Josquin des Prez
!!!CDT: ~1450-1521/08/27
!!!OTL@@FRA: Belle pour l'amour de vous
!!!AGN: Chanson
!!!SCT: NJE 28.5
!!!SCA: New Josquin Edition 28.5
!!!voices: 4
**kern	**kern	**kern	**kern
*staff4	*staff3	*staff2	*staff1
*Ivox	*Ivox	*Ivox	*Ivox
*I"Bassus	*I"Tenor	*I"Altus	*I"Superius
*I'B	*I'T	*I'A	*I'S
*clefF4	*clefGv2	*clefGv2	*clefG2
*k[b-]	*k[]	*k[]	*k[]
*M2/1	*M2/1	*M2/1	*M2/1
*met(C|)	*met(C|)	*met(C|)	*met(C|)
=1-	=1-	=1-	=1-
0r	0r	1.A	0r
.	.	2G/	.
=2	=2	=2	=2
0r	0r	2.F/	1.a
.	.	8E/L	.
.	.	8D/J	.
.	.	2F/	.
.	.	[2E/	2g/
=3	=3	=3	=3
0r	0r	4E/]	1f
.	.	4D/	.
.	.	1d	.
.	.	.	1e
.	.	2c\	.
=4	=4	=4	=4
0r	0r	2B\	2d/
.	.	2G/	1e
.	.	1A	.
.	.	.	4d/
.	.	.	4c/
=5	=5	=5	=5
0r	1.d	4G/	2.B/
.	.	4A/	.
.	.	4B\	.
.	.	4c\	4A/
.	.	2d\	4B/
.	.	.	4A/
.	2c\	[2e\	[2a/
=6	=6	=6	=6
0r	1B	2e\]	2a/]
.	.	2d\	2g/
.	1A	2f\	2a/
.	.	[2e\	2cc\
=7	=7	=7	=7
0r	2G/	4e\]	2b\
.	.	4d\	.
.	1A	4c\	1cc
.	.	4B\	.
.	.	1A	.
.	4G/	.	4b\
.	4F/	.	4a/
=8	=8	=8	=8
1.G	0E	2B\	1g
.	.	1c	.
.	.	.	1r
2F\	.	4B\	.
.	.	4A/	.
=9	=9	=9	=9
1E	0r	2B\	1g
.	.	1c	.
1D	.	.	1f
.	.	2B\	.
=10	=10	=10	=10
2C/	0r	2c\	2e/
1D	.	1A	1f
4C/	.	2G/	4e/
4BB-/	.	.	4d/
=11	=11	=11	=11
0AA	1r	0A	2.c/
.	.	.	4d/
.	[1E	.	4e/
.	.	.	4f/
.	.	.	[2e/
=12	=12	=12	=12
0r	2E/]	0r	2e/]
.	2F/	.	4d/
.	.	.	4c/
.	1G	.	4B/
.	.	.	4A/
.	.	.	4B/
.	.	.	4A/
=13	=13	=13	=13
0r	1A	0r	4c/
.	.	.	4d/
.	.	.	4e/
.	.	.	4f/
.	2B\	.	2g/
.	[2c\	.	2a/
=14	=14	=14	=14
0r	2c\]	1r	2e/
.	4B\	.	1a
.	4A/	.	.
.	1B	2.d\	.
.	.	.	2g#i/
.	.	4e\	.
=15	=15	=15	=15
1r	0A	2f\	0a
.	.	2.e\	.
[1AA	.	.	.
.	.	4d\	.
.	.	4c\	.
.	.	4B\	.
=16	=16	=16	=16
2AA/]	0r	2A/	0r
2BB-/	.	1G	.
1C	.	.	.
.	.	4F/	.
.	.	4E/	.
=17	=17	=17	=17
1D	0r	4D/	0r
.	.	4E/	.
.	.	4F/	.
.	.	4G/	.
2E\	.	2E/	.
[2F\	.	[2D/	.
=18	=18	=18	=18
2F\]	0r	2D/]	0r
4E\	.	1d	.
4D\	.	.	.
1E	.	.	.
.	.	2c#i\	.
=19	=19	=19	=19
0D	0r	2d\	1.a
.	.	1f	.
.	.	2e\	2g/
=20	=20	=20	=20
0r	0r	1d	1f
.	.	1c	1e
=21	=21	=21	=21
0r	0r	2B\	2d/
.	.	2G/	1e
.	.	1A	.
.	.	.	4d/
.	.	.	4c/
=22	=22	=22	=22
0r	1.d	0G	2.B/
.	.	.	4c/
.	.	.	2d/
.	2c\	.	[2e/
=23	=23	=23	=23
0r	1B	0r	4e/]
.	.	.	4d/
.	.	.	2.g/
.	1A	.	.
.	.	.	4f/
.	.	.	[2f/
=24	=24	=24	=24
0r	2G/	0r	4f/]
.	.	.	4e/
.	1A	.	2.e/
.	.	.	4c/
.	4G/	.	2d/
.	4F/	.	.
=25	=25	=25	=25
1.G	0E	2r	0e
.	.	1e	.
2F\	.	2d\	.
=26	=26	=26	=26
1E	0r	2c\	0r
.	.	2.B\	.
1D	.	.	.
.	.	4A/	.
.	.	4G/	.
.	.	4F/	.
=27	=27	=27	=27
2C/	0r	2E/	1r
1D	.	1A	.
.	.	.	1d
4C/	.	2G/	.
4BB-/	.	.	.
=28	=28	=28	=28
0AA	1.E	1A	2c/
.	.	.	1e
.	.	[1e	.
.	2F/	.	4d/
.	.	.	4c/
=29	=29	=29	=29
1E	1G	1e]	1B
1F	1A	1d	1A
=30	=30	=30	=30
1E	2B\	1e	1r
.	2.c\	.	.
[1F	.	1c	1A
.	4B\	.	.
.	4A/	.	.
.	4G/	.	.
=31	=31	=31	=31
2F\]	2.A/	2A/	1c
2E\	.	2c\	.
.	4G/	.	.
2D\	2F/	2B\	2d/
2C/	2E/	[2A/	[2e/
=32	=32	=32	=32
1BB-	1D	2A/]	4e/]
.	.	.	4f/
.	.	2G/	1d
1AA	1E	1A	.
.	.	.	2c#i/
=33	=33	=33	=33
2D\	2D/	2F/	2d/
2C/	2G/	2c\	2e/
2D\	2F/	2A/	2f/
2C/	2E/	2c\	[2g/
=34	=34	=34	=34
1D	1D	2B\	4g/]
.	.	.	4f/
.	.	1A	4e/
.	.	.	4d/
2AA/	1E	.	2c/
2E\	.	2G/	2g/
=35	=35	=35	=35
2F\	2D/	2A/	2f/
2C/	2G/	2c\	2e/
2D\	2F/	2B\	2d/
2C/	2E/	[2A/	[2e/
=36	=36	=36	=36
1BB-	1D	2A/]	4e/]
.	.	.	4f/
.	.	2G/	1d
1AA	1E	[1A	.
.	.	.	2c#i/
=37	=37	=37	=37
[0Dl	[0Dl	2A/]	[0dl
.	.	2F/	.
.	.	2.B-i\	.
.	.	4A/	.
=38	=38	=38	=38
0D]	0D]	0Al	0d]
==	==	==	==
*-	*-	*-	*-
!!!RDF**kern: l=long note in original notation
!!!RDF**kern: i=editorial accidental
!!!ENC: Jesse Rodin; Victoria Chang 2011/07/27
!!!END: 2011/07/27/
!!!EED: Jesse Rodin
!!!EEV: 2011/08/12/
!!attribution-level@Jos: 4 (questionable)
!!!ONB: Translated from MusicXML and edited on 2011/08/12/ by Craig Sapp
!!muse2ps:  C^@{COA}?\n@{SCT}^v90,90,90,150I150Q16
